build/img/svg/health-care.svg

<svg width="30" height="30" viewBox="0 0 30 30" fill="none" xmlns="http://www.w3.org/2000/svg">
<path d="M24.4287 10.4504H20.4726V14.9998H15.9232V18.9559H20.4726V23.5053H24.4287V18.9559H28.9781V14.9998H24.4287V10.4504Z" fill="#27AE60"/>
<path d="M13.9451 13.0219H18.4945V8.47242H26.4066V13.0219H28.701C29.5231 11.7032 30 10.2082 30 8.56935C30 4.0013 26.2976 0.297392 21.7305 0.297392C18.9555 0.297392 16.5 1.66427 15 3.76183C13.5 1.66421 11.0445 0.296799 8.26952 0.296799C3.7024 0.296799 0 3.99985 0 8.56796C0 10.5538 0.699692 12.3758 1.86587 13.8015L15 29.7033L18.4945 25.4723V20.934H13.9451V13.0219Z" fill="#27AE60"/>
</svg>

<svg width="30" height="30" fill="none" xmlns="http://www.w3.org/2000/svg"><path d="M24.429 10.45h-3.956V15h-4.55v3.956h4.55v4.55h3.956v-4.55h4.55V15h-4.55v-4.55z" fill="#27AE60"/><path d="M13.945 13.022h4.55v-4.55h7.912v4.55H28.7c.823-1.319 1.3-2.814 1.3-4.453a8.271 8.271 0 00-15-4.807A8.27 8.27 0 000 8.568c0 1.986.7 3.808 1.866 5.233L15 29.703l3.494-4.23v-4.539h-4.549v-7.912z" fill="#27AE60"/></svg>
